!!!OTL: Passion.
!!!ARE: Europa, Mitteleuropa, Deutschland
!!!SCT: A0545
!!!TXL: @@DE
!!!YEM: Copyright 1995, estate of Helmut Schaffrath.
**kern	**text
*M4/2	*
*met(c|)	*
*clefC1	*
*k[]	*
*D:dor	*
!LO:TX:a:t=dor.	!
{1d	Gott
=1	=1
2a	ʒ'Lob
2a	ſo
2a	wölln
2a	wir
=2	=2
*lig	*
2.cc	ſin-
4b	.
*Xlig	*
2a}	-gen
{2f	von
=3	=3
2a	ei-
2cc	-ner
2cc	Ro-
2b	-ſen
=4	=4
1a}	grün:
{1d	Gott
=5	=5
2a	ʒ'Lob
2a	ſo
2a	wölln
2a	wir
=6	=6
*lig	*
2.cc	ſin-
4b	.
*Xlig	*
2a}	-gen
{2f	von
=7	=7
2a	ei-
2cc	-ner
2cc	Ro-
2b	-ſen
=8	=8
1a	grün:
2r}	.
{2a	Ein
=9	=9
*lig	*
4a	ed-
4b	-les
*Xlig	*
2cc	Ʒweig
2cc	hat
4b	vns
4a	ge-
=10	=10
1g	-tra-
2d}	-gen
{2c	ein
=11	=11
2f	Jungkfraw
2f	.
2g/	wun-
2e	-der-
=12	=12
1d	-ſchön.
2r}	.
{2a	Ein
=13	=13
*lig	*
4a	ed-
4b	-les
*Xlig	*
2cc	Ʒweig
2cc	hat
4b	vns
4a	ge-
=14	=14
1g	-tra-
2d}	-gen
{2c	ein
=15	=15
2f	Jungkfraw
2f	.
2g/	wun-
2e	-der-
=16	=16
1d}	-ſchön.
==	==
!!!GTL: Geistliche Volkslieder
!!!AGN: Romanze, Ballade, Lied, religioeses Lied
!! Corner, Gsgb. 1625 No. 200.
!!!ONB: ESAC (Essen Associative Code) Database: ALTDEU
!!!AMT: simple quadruple
!!!AIN: vox
!!!EED: Helmut Schaffrath
!!!EEV: 1.0
!!!AMD: Dorian
!!!URL-scan: https://rosdok.uni-rostock.de/mcrviewer/recordIdentifier/rosdok_ppn738218359/iview2/phys_0725.iview2?x=-495.6391625615763&y=1762.6403940687887&scale=0.4629418472063854&rotation=0&layout=singlePageLayout&logicalDiv=log_0007
!!!ENC: Anna Maria Matuszewska
!!!EEV: 2024/20/03
*-	*-
